X:1
T: Miss Trotter
C:
R:Strathspey
Q: 128
K:A
M:4/4
L:1/16
|:c2|A,3C EA3 FA3 E3c|d3B dcBA GB3 B3C|A,3C EA3 F3A df3|e3c dcBA EA3 A2c2|
A,3C EA3 FA3 E3c|d3B dcBA GB3 B3C|A,3C EA3 F3A df3|e3c dcBA EA3 A2e2|
ae3 c3e fa3 e3c|d3B dcBA GB3 B3g|ae3 c3e fa3 e3c|((3d2e2f2) e3d cA3 A3g|
ae3 c3e fa3 e3c|d3B dcBA GB3 B3d|cA3 e3c dB3 f3d|((3c2d2e2) ((3e2f2g2) aA3 A2:|
